build/category/LayersOutline.svg

<svg xmlns="http://www.w3.org/2000/svg" fill="none" viewBox="0 0 24 24" focusable="false"><path d="M0 0H24V24H0z"/><path fill="#74767B" fill-rule="evenodd" d="M13.6323 3.65158C12.6047 3.13779 11.3952 3.13779 10.3677 3.65158L2.88432 7.39325C2.33153 7.66964 2.33153 8.4585 2.88432 8.73489L5.51122 10.0483L2.88432 11.3618C2.33153 11.6382 2.33153 12.427 2.88432 12.7034L5.51153 14.017L2.95408 15.2958C2.40129 15.5722 2.4013 16.361 2.95408 16.6374L10.3676 20.3442C11.3952 20.858 12.6047 20.858 13.6323 20.3442L21.0459 16.6374C21.5986 16.361 21.5986 15.5722 21.0459 15.2958L18.4884 14.0171L21.1157 12.7034C21.6684 12.427 21.6684 11.6382 21.1157 11.3618L18.4887 10.0483L21.1157 8.73488C21.6684 8.45849 21.6684 7.66964 21.1157 7.39325L13.6323 3.65158ZM10.949 4.81433C11.6106 4.48354 12.3893 4.48354 13.0509 4.81433L19.5504 8.06407L13.0509 11.3138C12.3893 11.6446 11.6106 11.6446 10.949 11.3138L4.44956 8.06407L10.949 4.81433ZM17.0353 10.7751L13.6323 12.4766C12.6047 12.9903 11.3952 12.9903 10.3677 12.4766L6.96467 10.7751L4.44956 12.0326L10.949 15.2823C11.6106 15.6131 12.3893 15.6131 13.0509 15.2824L19.5504 12.0326L17.0353 10.7751ZM4.51933 15.9666L6.96497 14.7438L10.3677 16.4451C11.3952 16.9589 12.6047 16.9589 13.6323 16.4451L17.035 14.7438L19.4806 15.9666L13.0509 19.1814C12.3893 19.5122 11.6106 19.5122 10.949 19.1814L4.51933 15.9666Z"/></svg>

<svg xmlns="http://www.w3.org/2000/svg" fill="none" viewBox="0 0 24 24" focusable="false"><path fill="#74767B" fill-rule="evenodd" d="M13.63 3.65a3.62 3.62 0 0 0-3.27 0L2.88 7.39c-.55.27-.55 1.06 0 1.34l2.63 1.31-2.63 1.32c-.55.27-.55 1.06 0 1.34l2.63 1.31-2.56 1.28c-.55.28-.55 1.07 0 1.34l7.41 3.71c1.03.51 2.24.51 3.27 0l7.41-3.71c.55-.27.55-1.06 0-1.34l-2.56-1.28 2.63-1.31c.55-.28.55-1.07 0-1.34l-2.63-1.32 2.63-1.31c.55-.28.55-1.07 0-1.34zm-2.69 1.16c.67-.33 1.44-.33 2.11 0l6.5 3.25-6.5 3.25c-.67.33-1.44.33-2.11 0l-6.5-3.25zm6.09 5.96-3.4 1.7c-1.03.52-2.24.52-3.27 0l-3.4-1.7-2.52 1.26 6.5 3.25c.67.33 1.44.33 2.11 0l6.5-3.25zM4.51 15.96l2.45-1.22 3.4 1.7c1.03.51 2.24.51 3.27 0l3.4-1.7 2.45 1.22-6.43 3.22c-.67.33-1.44.33-2.11 0z"/></svg>
